X:1
T:Title
L:1/8
Q:1/4=110
M:2/4
K:Eb
V:1 treble nm="Grand Piano"
V:1
 E2 F2 | G4- | GF GA | BA GF | G4- | G4 | E2 F2 | G4- | GF GA | BA GF | G4- | G4 | B2 =A2 | B4- | %14
w: ????~???? *||||||||||||||
 BG AB | cB AG | F4- | F4 | E2 F2 | G4- | GA GF | ED CD | E4- | E4 | EF GA | B4 | AG F2 | E4 | %28
w: ||||||||||||||
 EF GA | B4 | AG F2- | F4 | B>=A B2 | G4 | A>G A2 | F4 | B>B B2- | BA G2 | F2 E2- | E4 |] %40
w: ||||||||||||

